humanity-icon-theme/Humanity/actions/48/media-seek-backward.svg

<?xml version="1.0" encoding="UTF-8" standalone="no"?>
<!-- Created with Inkscape (http://www.inkscape.org/) -->

<svg
   xmlns:svg="http://www.w3.org/2000/svg"
   xmlns="http://www.w3.org/2000/svg"
   xmlns:xlink="http://www.w3.org/1999/xlink"
   version="1.1"
   width="48"
   height="48"
   id="svg2436">
  <defs
     id="defs2438">
    <linearGradient
       id="linearGradient5325">
      <stop
         id="stop5327"
         style="stop-color:#eeeeec;stop-opacity:1"
         offset="0" />
      <stop
         id="stop5329"
         style="stop-color:#babdb6;stop-opacity:1"
         offset="0.79520601" />
      <stop
         id="stop5331"
         style="stop-color:#a1a59b;stop-opacity:1"
         offset="1" />
    </linearGradient>
    <linearGradient
       x1="46.810242"
       y1="-3.7612398"
       x2="22.683298"
       y2="36.569065"
       id="linearGradient2399"
       xlink:href="#linearGradient4222"
       gradientUnits="userSpaceOnUse" />
    <linearGradient
       id="linearGradient4222">
      <stop
         id="stop4224"
         style="stop-color:white;stop-opacity:1"
         offset="0" />
      <stop
         id="stop4226"
         style="stop-color:white;stop-opacity:0"
         offset="1" />
    </linearGradient>
    <linearGradient
       x1="54.570274"
       y1="-14.909454"
       x2="20.825262"
       y2="40.394432"
       id="linearGradient2397"
       xlink:href="#linearGradient4222"
       gradientUnits="userSpaceOnUse" />
    <linearGradient
       x1="34.047771"
       y1="32.000462"
       x2="34.047771"
       y2="13.000461"
       id="linearGradient2395"
       xlink:href="#linearGradient5325"
       gradientUnits="userSpaceOnUse" />
    <linearGradient
       x1="16.04777"
       y1="32.000462"
       x2="16.04777"
       y2="13.000461"
       id="linearGradient2393"
       xlink:href="#linearGradient5325"
       gradientUnits="userSpaceOnUse" />
  </defs>
  <g
     transform="translate(0.29988497,0)"
     id="layer1">
    <g
       transform="matrix(-1,0,0,1,48.747885,0)"
       id="g2379">
      <path
         d="M 6.5,35 6.5,13.000461 24.99577,24.010194 6.5,35 z"
         transform="matrix(1,0,0,-1,0,48.000461)"
         id="path8027"
         style="fill:url(#linearGradient2393);fill-opacity:1;fill-rule:evenodd;stroke:#888a86;stroke-width:0.99999994;stroke-linecap:square;stroke-linejoin:miter;stroke-miterlimit:4;stroke-opacity:1;stroke-dashoffset:0.69999992" />
      <path
         d="M 24.5,35 24.5,13.000461 42.99577,24.010194 24.5,35 z"
         transform="matrix(1,0,0,-1,0,48.000461)"
         id="path8033"
         style="fill:url(#linearGradient2395);fill-opacity:1;fill-rule:evenodd;stroke:#888a86;stroke-width:0.99999994;stroke-linecap:square;stroke-linejoin:miter;stroke-miterlimit:4;stroke-opacity:1;stroke-dashoffset:0.69999992" />
      <path
         d="m 22.5,14.78125 0,18.4375 L 38.03125,24 22.5,14.78125 z"
         transform="matrix(1,0,0,-1,3,48.000461)"
         id="path8035"
         style="fill:none;stroke:url(#linearGradient2397);stroke-width:0.99999994;stroke-linecap:square;stroke-linejoin:miter;stroke-miterlimit:4;stroke-opacity:1;stroke-dashoffset:0.69999992" />
      <path
         d="m 22.5,14.78125 0,18.4375 L 38.03125,24 22.5,14.78125 z"
         transform="matrix(1,0,0,-1,-15,48.000461)"
         id="path8029"
         style="fill:none;stroke:url(#linearGradient2399);stroke-width:0.99999994;stroke-linecap:square;stroke-linejoin:miter;stroke-miterlimit:4;stroke-opacity:1;stroke-dashoffset:0.69999992" />
    </g>
  </g>
</svg>

<?xml version="1.0" encoding="UTF-8" standalone="no"?>
<!-- Created with Inkscape (http://www.inkscape.org/) -->
<svg id="svg2436" xmlns="http://www.w3.org/2000/svg" height="48" width="48" version="1.1" xmlns:xlink="http://www.w3.org/1999/xlink">
 <defs id="defs2438">
  <linearGradient id="linearGradient5325">
   <stop id="stop5327" style="stop-color:#eeeeec" offset="0"/>
   <stop id="stop5329" style="stop-color:#babdb6" offset=".79521"/>
   <stop id="stop5331" style="stop-color:#a1a59b" offset="1"/>
  </linearGradient>
  <linearGradient id="linearGradient2399" y2="36.569" xlink:href="#linearGradient4222" gradientUnits="userSpaceOnUse" x2="22.683" y1="-3.7612" x1="46.81"/>
  <linearGradient id="linearGradient4222">
   <stop id="stop4224" style="stop-color:#fff" offset="0"/>
   <stop id="stop4226" style="stop-color:#fff;stop-opacity:0" offset="1"/>
  </linearGradient>
  <linearGradient id="linearGradient2397" y2="40.394" xlink:href="#linearGradient4222" gradientUnits="userSpaceOnUse" x2="20.825" y1="-14.909" x1="54.57"/>
  <linearGradient id="linearGradient2395" y2="13" xlink:href="#linearGradient5325" gradientUnits="userSpaceOnUse" x2="34.048" y1="32" x1="34.048"/>
  <linearGradient id="linearGradient2393" y2="13" xlink:href="#linearGradient5325" gradientUnits="userSpaceOnUse" x2="16.048" y1="32" x1="16.048"/>
 </defs>
 <g id="layer1" transform="translate(.29988)">
  <g id="g2379" transform="matrix(-1 0 0 1 48.748 0)">
   <path id="path8027" style="fill-rule:evenodd;stroke-dashoffset:0.7;stroke:#888a86;stroke-linecap:square;fill:url(#linearGradient2393)" d="m6.5 35v-22l18.496 11.01-18.496 10.99z" transform="matrix(1 0 0 -1 0 48)"/>
   <path id="path8033" style="fill-rule:evenodd;stroke-dashoffset:0.7;stroke:#888a86;stroke-linecap:square;fill:url(#linearGradient2395)" d="m24.5 35v-22l18.496 11.01-18.496 10.99z" transform="matrix(1 0 0 -1 0 48)"/>
   <path id="path8035" style="stroke-dashoffset:0.7;stroke:url(#linearGradient2397);stroke-linecap:square;fill:none" d="m22.5 14.781v18.438l15.531-9.219-15.531-9.219z" transform="matrix(1 0 0 -1 3 48)"/>
   <path id="path8029" style="stroke-dashoffset:0.7;stroke:url(#linearGradient2399);stroke-linecap:square;fill:none" d="m22.5 14.781v18.438l15.531-9.219-15.531-9.219z" transform="matrix(1 0 0 -1 -15 48)"/>
  </g>
 </g>
</svg>
